X:1
T:The Lily of Arkansas
M:2/4
L:1/8
K:C
 E| GG AG| G3 E| GG ED| C3 E| GG A3/2 G/2| GE ED| CC DE| D3| E| GG AG|\
 G E2 D| CC DE| D3 E| G3/2 G/2A/2 A/2 G| GG ED| CC DE| C3||
